assets/spark/icons/DeliveryFill.svg

<svg viewBox="0 0 24 24" xmlns="http://www.w3.org/2000/svg">
<path d="M10.9062 15.76H16.8813C18.156 15.76 19.112 14.72 19.112 13.52V7.60001C19.112 6.32001 18.0763 5.36001 16.8813 5.36001H10.9062C9.63152 5.36001 8.6755 6.40001 8.6755 7.60001V13.52C8.59584 14.8 9.63152 15.76 10.9062 15.76Z" />
<path d="M14.8893 12.48H13.535C12.9773 12.48 12.579 12.08 12.579 11.52C12.579 11.04 12.9773 10.56 13.535 10.56H14.8893C15.447 10.56 15.8453 10.96 15.8453 11.52C15.7657 12.08 15.3673 12.48 14.8893 12.48Z" />
<path d="M21.668 20.25L20.0083 18.5833C19.5934 18.1667 19.0124 17.9167 18.3485 17.9167H8.72199C8.55602 17.25 8.22407 16.6667 7.72614 16.25C7.47718 16 7.14523 15.8333 6.73029 15.6667V4.41667C6.73029 3.83333 6.48133 3.16667 6.06639 2.75C5.56846 2.25 4.98755 2 4.32365 2H2.99585C2.41494 2 2 2.5 2 3C2 3.5 2.41494 4 2.99585 4H4.40664C4.48963 4 4.6556 4.08333 4.6556 4.08333C4.73859 4.16667 4.73859 4.25 4.73859 4.33333V15.3333C4.07469 15.5 3.41079 15.8333 2.99585 16.25C2.41494 16.9167 2 17.75 2 18.6667C2 19.5 2.33195 20.4167 2.91286 21C3.57676 21.5833 4.40664 22 5.3195 22C6.23237 22 7.06224 21.75 7.72614 21.1667C8.14108 20.8333 8.47303 20.3333 8.639 19.8333H18.3485C18.4315 19.8333 18.5145 19.8333 18.5975 19.9167L20.2573 21.5833C20.6722 22 21.2531 22 21.668 21.5833C21.834 21.4167 22 21.1667 22 20.9167C21.917 20.6667 21.834 20.4167 21.668 20.25Z" />
</svg>

<svg viewBox="0 0 24 24" xmlns="http://www.w3.org/2000/svg">
  <path d="m10.91,15.76h5.98c1.27,0,2.23-1.04,2.23-2.24v-5.92c0-1.28-1.04-2.24-2.23-2.24h-5.98c-1.27,0-2.23,1.04-2.23,2.24v5.92c-.08,1.28.96,2.24,2.23,2.24Z"/>
  <path d="m14.89,12.48h-1.35c-.56,0-.96-.4-.96-.96,0-.48.4-.96.96-.96h1.35c.56,0,.96.4.96.96-.08.56-.48.96-.96.96Z"/>
  <path d="m21.67,20.25l-1.66-1.67c-.41-.42-1-.67-1.66-.67h-9.63c-.17-.67-.5-1.25-1-1.67-.25-.25-.58-.42-1-.58V4.42c0-.58-.25-1.25-.66-1.67-.5-.5-1.08-.75-1.74-.75h-1.33c-.58,0-1,.5-1,1s.41,1,1,1h1.41c.08,0,.25.08.25.08.08.08.08.17.08.25v11c-.66.17-1.33.5-1.74.92-.58.67-1,1.5-1,2.42,0,.83.33,1.75.91,2.33.66.58,1.49,1,2.41,1s1.74-.25,2.41-.83c.41-.33.75-.83.91-1.33h9.71c.08,0,.17,0,.25.08l1.66,1.67c.41.42,1,.42,1.41,0,.17-.17.33-.42.33-.67-.08-.25-.17-.5-.33-.67Z"/>
</svg>
